blockchains/ethereum/assets/0x6c6EE5e31d828De241282B9606C8e98Ea48526E2/logo.svg

<svg fill="none" height="250" viewBox="0 0 250 250" width="250" xmlns="http://www.w3.org/2000/svg" xmlns:xlink="http://www.w3.org/1999/xlink"><clipPath id="a"><path d="m0 0h250v250h-250z"/></clipPath><g clip-path="url(#a)"><circle cx="125" cy="125" fill="#fff" r="125"/><path d="m45.9393 62.6297c-2.4735.1946-4.3772.5837-4.2702.8755.9866 2.3484 7.0869 16.1748 7.1703 16.2582s1.5007.1806 3.1683.2501c7.3926.2779 13.2428 1.7231 19.5654 4.8497 4.544 2.2372 7.9068 4.6412 11.4085 8.1291 5.1554 5.1415 8.5182 10.8527 10.4914 17.8427.2224.806.403 1.528.403 1.639 0 .153-1.1255.181-6.1003.181-3.3628 0-6.2531.056-6.4338.125-.264.097-.9588 1.598-3.8492 8.226-1.9454 4.461-3.5573 8.213-3.5851 8.338-.0973.361 1.07.681 3.9881 1.112.5976.097 4.1827.194 8.421.25l7.3787.083-.4447 1.529c-4.9747 16.869-20.4131 28.667-39.3254 30.084-1.07.07-2.4735.139-3.1266.139h-1.1811l-3.6408 8.38c-3.1266 7.156-3.6129 8.379-3.4045 8.448.9449.348 3.0571.473 7.9485.473 6.2531 0 9.2964-.278 14.4517-1.334 21.0523-4.322 38.5475-17.718 46.4675-35.615 1.529-3.447 3.322-9.116 3.641-11.492l.097-.681h15.8l.056.305c1.139 5.587 2.376 9.352 4.516 13.799 6.434 13.396 18.495 24.332 33.433 30.335 9.072 3.633 18.788 5.377 28.557 5.127 4.085-.125 7.337-.583 7.17-1.014-.139-.361-7.059-16.244-7.101-16.286s-1.473-.097-3.21-.167c-4.877-.194-8.546-.764-12.687-1.945-6.378-1.834-12.687-5.156-17.523-9.213-6.086-5.128-10.491-11.506-12.826-18.579-.264-.806-.528-1.654-.569-1.904l-.098-.444 5.948-.042c3.265-.028 6.045-.097 6.156-.153.18-.097 7.295-16.23 7.295-16.55 0-.208-1.792-.736-3.418-1-1.195-.195-2.71-.251-8.755-.292l-7.323-.07.278-.986c4.058-14.3688 16.508-25.7773 32.558-29.821 3.544-.8894 6.99-1.3479 11.464-1.5286 2.668-.1111 3.002-.1528 3.169-.3752.111-.1528 1.75-3.8352 3.64-8.1846 2.321-5.3222 3.391-7.9485 3.294-8.018-.306-.1667-2.252-.5141-3.78-.667-2.223-.2362-8.713-.1945-11.575.0556-16.37 1.4591-31.127 8.0596-42.188 18.8428-6.754 6.5867-11.492 13.9793-14.41 22.511-.751 2.154-1.654 5.545-1.932 7.185l-.167 1.014h-15.531l-.056-.32c-.041-.166-.194-.958-.361-1.764-2.293-11.395-8.768-22.4701-17.9119-30.627-10.408-9.2963-23.3868-15.1187-37.6718-16.8877-4.2938-.5238-9.8285-.7045-13.479-.4266z" fill="#007f88"/></g></svg>

<svg width="250" height="250" viewBox="0 0 250 250" fill="none" xmlns="http://www.w3.org/2000/svg">
<g clip-path="url(#clip0_50_11214)">
<circle cx="125" cy="125" r="125" fill="white"/>
<path d="M45.9393 62.6297C43.4658 62.8243 41.5621 63.2134 41.6691 63.5052C42.6557 65.8536 48.756 79.68 48.8394 79.7634C48.9228 79.8468 50.3401 79.944 52.0077 80.0135C59.4003 80.2914 65.2505 81.7366 71.5731 84.8632C76.1171 87.1004 79.4799 89.5044 82.9816 92.9923C88.137 98.1338 91.4998 103.845 93.473 110.835C93.6954 111.641 93.876 112.363 93.876 112.474C93.876 112.627 92.7505 112.655 87.7757 112.655C84.4129 112.655 81.5226 112.711 81.3419 112.78C81.0779 112.877 80.3831 114.378 77.4927 121.006C75.5473 125.467 73.9354 129.219 73.9076 129.344C73.8103 129.705 74.9776 130.025 77.8957 130.456C78.4933 130.553 82.0784 130.65 86.3167 130.706L93.6954 130.789L93.2507 132.318C88.276 149.187 72.8376 160.985 53.9253 162.402C52.8553 162.472 51.4518 162.541 50.7987 162.541H49.6176L45.9768 170.921C42.8502 178.077 42.3639 179.3 42.5723 179.369C43.5172 179.717 45.6294 179.842 50.5208 179.842C56.7739 179.842 59.8172 179.564 64.9725 178.508C86.0248 174.186 103.52 160.79 111.44 142.893C112.969 139.446 114.762 133.777 115.081 131.401L115.178 130.72H130.978L131.034 131.025C132.173 136.612 133.41 140.377 135.55 144.824C141.984 158.22 154.045 169.156 168.983 175.159C178.055 178.792 187.771 180.536 197.54 180.286C201.625 180.161 204.877 179.703 204.71 179.272C204.571 178.911 197.651 163.028 197.609 162.986C197.567 162.944 196.136 162.889 194.399 162.819C189.522 162.625 185.853 162.055 181.712 160.874C175.334 159.04 169.025 155.718 164.189 151.661C158.103 146.533 153.698 140.155 151.363 133.082C151.099 132.276 150.835 131.428 150.794 131.178L150.696 130.734L156.644 130.692C159.909 130.664 162.689 130.595 162.8 130.539C162.98 130.442 170.095 114.309 170.095 113.989C170.095 113.781 168.303 113.253 166.677 112.989C165.482 112.794 163.967 112.738 157.922 112.697L150.599 112.627L150.877 111.641C154.935 97.2722 167.385 85.8637 183.435 81.82C186.979 80.9306 190.425 80.4721 194.899 80.2914C197.567 80.1803 197.901 80.1386 198.068 79.9162C198.179 79.7634 199.818 76.081 201.708 71.7316C204.029 66.4094 205.099 63.7831 205.002 63.7136C204.696 63.5469 202.75 63.1995 201.222 63.0466C198.999 62.8104 192.509 62.8521 189.647 63.1022C173.277 64.5613 158.52 71.1618 147.459 81.945C140.705 88.5317 135.967 95.9243 133.049 104.456C132.298 106.61 131.395 110.001 131.117 111.641L130.95 112.655H115.419L115.363 112.335C115.322 112.169 115.169 111.377 115.002 110.571C112.709 99.176 106.234 88.1009 97.0901 79.944C86.6821 70.6477 73.7033 64.8253 59.4183 63.0563C55.1245 62.5325 49.5898 62.3518 45.9393 62.6297Z" fill="#007F88"/>
</g>
<defs>
<clipPath id="clip0_50_11214">
<rect width="250" height="250" fill="white"/>
</clipPath>
</defs>
</svg>
